frontend/public/svg/currency/won.svg

<svg width="163" height="160" viewBox="0 0 163 160" fill="none" xmlns="http://www.w3.org/2000/svg">
<g clip-path="url(#clip0)">
<path d="M33.5721 83.6692C31.5375 83.6692 29.7604 83.6895 27.983 83.6632C26.2991 83.6961 24.6144 83.6344 22.9374 83.4775C21.1082 83.2419 19.7122 82.2501 19.7628 80.2017C19.8146 78.0968 21.2884 77.3473 23.1708 77.258C25.9392 77.1268 28.7104 77.0434 31.6422 76.9299C30.1865 69.8283 28.8155 63.1618 27.4562 56.4928C27.1871 55.1729 26.9183 53.8504 26.7293 52.518C26.3611 49.9163 27.16 48.1284 28.9105 47.8783C31.1644 47.5567 32.1483 49.0703 32.6819 50.9251C33.3625 53.2952 33.9515 55.6928 34.5566 58.0838C35.9349 63.5215 37.284 68.9652 38.6729 74.3997C38.8907 75.056 39.1534 75.6966 39.4599 76.3169C47.4975 75.9618 55.4462 75.5745 63.3977 75.289C65.0169 75.2313 65.4249 74.2133 65.8949 73.0365C68.9684 65.3354 72.0519 57.6374 75.1452 49.9425C75.478 49.1109 75.7884 48.2696 76.1383 47.4485C76.9554 45.5248 78.3416 44.2705 80.5009 44.3453C82.8126 44.4267 84.0937 45.8667 84.7862 47.9998C86.238 52.4721 87.659 56.9581 89.2709 61.3733C90.6932 65.2667 92.3728 69.0663 93.9086 72.919C94.3562 74.0426 94.9108 74.8132 96.3161 74.804C103.494 74.7587 110.673 74.783 118.208 74.783C118.828 71.9607 119.499 69.0335 120.112 66.0957C121.528 59.2921 122.913 52.4825 124.317 45.677C124.395 45.3501 124.493 45.0284 124.61 44.7135C125.482 42.1472 127.455 40.7144 129.581 41.0997C130.192 41.2196 130.772 41.4603 131.288 41.8074C131.805 42.1544 132.247 42.601 132.589 43.121C132.931 43.641 133.165 44.2239 133.278 44.8356C133.392 45.4474 133.383 46.0758 133.251 46.6839C132.546 50.5392 131.537 54.3387 130.697 58.1698C129.501 63.6246 128.341 69.0866 127.078 74.9536C130.067 74.9536 132.707 74.932 135.345 74.9595C138.37 74.9904 141.408 74.8972 144.412 75.1709C147.222 75.4262 148.469 76.7146 148.541 78.7401C148.616 80.8482 147.17 82.4064 144.369 82.7135C141.586 83.0181 138.767 83.0325 135.963 83.0798C132.602 83.1362 129.239 83.0929 125.442 83.0929C124.357 88.4013 123.249 93.8273 122.083 99.5322C125.164 99.5322 127.943 99.4869 130.719 99.5492C132.391 99.5 134.064 99.6438 135.703 99.9791C138.121 100.616 139.456 102.329 139.346 104.245C139.334 105.216 138.992 106.153 138.376 106.904C137.76 107.654 136.907 108.172 135.957 108.372C134.118 108.821 132.235 109.071 130.342 109.115C126.872 109.228 123.397 109.148 119.539 109.148C118.706 112.154 117.862 115.251 116.979 118.336C116.67 119.643 116.25 120.92 115.721 122.155C113.847 126.017 109.728 126.317 107.561 122.641C105.4 118.974 103.437 115.173 101.654 111.31C100.812 109.487 99.7815 108.869 97.8329 108.914C86.0411 109.187 74.2487 109.388 62.4561 109.516C60.2075 109.537 59.0587 110.37 58.1996 112.413C56.9007 115.508 55.2825 118.473 53.7289 121.455C52.5856 123.649 51.0308 125.469 48.2532 125.139C45.6279 124.826 44.637 122.807 43.9505 120.537C43.1399 117.855 42.1291 115.229 41.4078 112.524C40.974 110.896 40.1255 110.404 38.5293 110.452C33.9264 110.59 29.3197 110.627 24.7141 110.672C23.5906 110.688 22.4672 110.633 21.3504 110.508C19.0375 110.237 17.6788 108.983 17.7405 107.282C17.8022 105.61 19.2226 104.394 21.5388 104.197C24.7831 103.924 28.0364 103.766 31.2833 103.51C33.5063 103.336 35.7237 103.078 38.3018 102.822C36.7147 96.3975 35.1939 90.2371 33.5721 83.6692ZM63.3701 101.008L96.4677 99.882C93.9198 94.1246 91.5825 88.7243 89.0931 83.3935C88.8207 82.8107 87.6708 82.3368 86.9212 82.3269C82.3308 82.2685 77.7325 82.2876 73.1493 82.4681C72.6918 82.5409 72.2573 82.7155 71.8767 82.9793C71.4966 83.2425 71.1796 83.5891 70.9512 83.9914C68.4138 89.4462 66.0323 94.9713 63.3669 101.008H63.3701ZM41.0059 83.108C42.8969 89.9464 44.5851 96.0516 46.3047 102.273C48.1113 102.235 49.9142 102.102 51.7067 101.874C52.124 101.8 52.5219 101.64 52.8752 101.406C53.2284 101.172 53.5294 100.868 53.7603 100.512C56.4309 94.7521 58.9709 88.931 61.5575 83.1093L41.0059 83.108ZM113.287 99.2572C114.367 93.889 115.453 88.4985 116.622 82.6866H98.0311C100.036 87.0093 101.868 90.9447 103.689 94.886C106.175 100.268 106.171 100.268 112.161 99.7054C112.549 99.5899 112.924 99.4403 113.284 99.2572H113.287ZM80.1944 61.3031C78.209 66.1876 76.5045 70.3803 74.7245 74.7581H85.4051C83.6697 70.2877 82.1057 66.2473 80.1911 61.3057L80.1944 61.3031Z" fill="black"/>
<path d="M161.883 73.2835C160.037 57.0776 153.532 41.7544 143.155 29.1694C134.603 18.6752 125.404 11.1961 115.031 6.313C106.938 2.41358 98.0704 0.383155 89.0858 0.371826C86.3259 0.376108 83.5686 0.556119 80.831 0.910707C69.4403 2.38812 57.8942 5.69276 44.5069 11.3176C26.3985 18.9311 13.7903 32.0158 7.04244 50.1984C2.30888 62.6842 0.484455 76.0848 1.70777 89.3815C3.13071 104.32 6.72575 115.898 13.0181 125.808C22.109 140.113 33.5612 149.535 48.0341 154.6C56.808 157.675 66.4658 159.219 78.4164 159.462C85.451 159.462 91.9993 158.613 98.3323 157.79L99.5327 157.635C113.358 155.848 125.1 150.857 135.434 142.393C145.151 134.579 152.507 124.219 156.679 112.468C161.628 98.4331 163.327 85.6122 161.883 73.2835ZM145.562 117.843C137.739 133.685 124.582 144.078 106.439 148.732C104.261 149.291 102.008 149.696 99.6279 150.121C98.4465 150.33 97.2126 150.552 95.9183 150.802C90.2738 151.655 82.6609 151.78 78.4643 151.78C76.5963 151.78 75.4018 151.753 75.3683 151.753C64.3476 151.618 54.866 149.75 46.3887 146.034C35.0918 141.083 26.0614 132.727 18.7912 120.493C14.4003 113.115 11.615 104.381 10.0299 93.0104C7.99572 78.5474 9.77446 63.8033 15.1896 50.2385C20.8886 35.7852 31.1386 24.8198 45.6529 17.65C49.0048 15.9914 62.6286 11.9982 66.2096 11.2703C71.2524 10.2651 76.3647 9.65078 81.5025 9.43262C101.823 8.94693 109.848 12.2175 122.26 21.6937C135.256 31.6142 144.416 44.084 149.487 58.7531C156.374 78.7331 155.058 98.6149 145.562 117.843Z" fill="black"/>
</g>
<defs>
<clipPath id="clip0">
<rect width="162.115" height="159.49" fill="white" transform="translate(0.779785 0.13501)"/>
</clipPath>
</defs>
</svg>

<svg xmlns="http://www.w3.org/2000/svg" width="163" height="160" fill="none" viewBox="0 0 163 160"><g fill="#000" clip-path="url(#a)"><path d="M33.572 83.67c-2.035 0-3.812.02-5.589-.007a45 45 0 0 1-5.046-.185c-1.829-.236-3.225-1.228-3.174-3.276.052-2.105 1.525-2.855 3.408-2.944 2.768-.131 5.54-.215 8.471-.328-1.456-7.102-2.826-13.768-4.186-20.437-.269-1.32-.538-2.643-.727-3.975-.368-2.602.431-4.39 2.182-4.64 2.253-.321 3.237 1.192 3.77 3.047.681 2.37 1.27 4.768 1.876 7.159 1.378 5.438 2.727 10.881 4.116 16.316q.327.986.787 1.917c8.038-.355 15.986-.742 23.938-1.028 1.619-.058 2.027-1.076 2.497-2.252a9973 9973 0 0 1 9.25-23.095c.333-.831.643-1.672.993-2.493.817-1.924 2.204-3.178 4.363-3.104 2.312.082 3.593 1.522 4.285 3.655 1.452 4.472 2.873 8.958 4.485 13.373 1.422 3.894 3.102 7.693 4.638 11.546.447 1.124 1.002 1.894 2.407 1.885 7.178-.045 14.357-.021 21.892-.021.62-2.822 1.291-5.75 1.904-8.687 1.416-6.804 2.801-13.614 4.205-20.419q.117-.491.293-.963c.872-2.567 2.845-4 4.971-3.614a4.67 4.67 0 0 1 3.008 2.021 4.68 4.68 0 0 1 .662 3.563c-.705 3.855-1.714 7.655-2.554 11.486-1.196 5.455-2.356 10.917-3.619 16.784 2.989 0 5.629-.022 8.267.006 3.025.03 6.063-.063 9.067.21 2.81.256 4.057 1.545 4.129 3.57.075 2.108-1.371 3.666-4.172 3.974-2.783.304-5.602.319-8.406.366-3.361.056-6.724.013-10.521.013l-3.359 16.44c3.081 0 5.86-.046 8.636.016a21.7 21.7 0 0 1 4.984.43c2.418.637 3.753 2.35 3.643 4.266a4.275 4.275 0 0 1-3.389 4.127 26.3 26.3 0 0 1-5.615.743c-3.47.113-6.945.033-10.803.033-.833 3.006-1.677 6.103-2.56 9.188a23.3 23.3 0 0 1-1.258 3.819c-1.874 3.862-5.993 4.162-8.16.486a128 128 0 0 1-5.907-11.331c-.842-1.823-1.873-2.441-3.821-2.396a2878 2878 0 0 1-35.377.602c-2.248.021-3.397.854-4.256 2.897-1.3 3.095-2.918 6.06-4.471 9.042-1.143 2.194-2.698 4.014-5.476 3.684-2.625-.313-3.616-2.332-4.303-4.602-.81-2.682-1.82-5.308-2.542-8.013-.434-1.628-1.282-2.12-2.879-2.072-4.603.138-9.21.175-13.815.22a27 27 0 0 1-3.364-.164c-2.312-.271-3.671-1.525-3.61-3.226.062-1.672 1.483-2.888 3.799-3.085 3.244-.273 6.497-.431 9.744-.687 2.223-.174 4.44-.432 7.019-.688zm29.798 17.338 33.098-1.126c-2.548-5.757-4.886-11.158-7.375-16.489-.272-.582-1.422-1.056-2.172-1.066-4.59-.058-9.189-.04-13.772.141a3.08 3.08 0 0 0-2.198 1.523c-2.537 5.455-4.919 10.98-7.584 17.017zm-22.364-17.9c1.89 6.838 3.58 12.944 5.299 19.165a51 51 0 0 0 5.402-.399 3.1 3.1 0 0 0 2.053-1.362c2.67-5.76 5.21-11.581 7.797-17.403zm72.281 16.15 3.335-16.571h-18.59c2.004 4.322 3.836 8.258 5.657 12.199 2.486 5.382 2.482 5.382 8.472 4.82a6.7 6.7 0 0 0 1.123-.449zM80.194 61.302l-5.47 13.455h10.681c-1.735-4.47-3.3-8.51-5.214-13.452z"/><path d="M161.883 73.284a84.35 84.35 0 0 0-18.728-44.115c-8.552-10.494-17.751-17.973-28.124-22.856A59.95 59.95 0 0 0 89.086.372 65 65 0 0 0 80.83.91C69.44 2.387 57.893 5.692 44.506 11.317 26.399 18.93 13.79 32.016 7.042 50.198a87.8 87.8 0 0 0-5.334 39.184c1.423 14.938 5.018 26.516 11.31 36.426 9.091 14.305 20.543 23.727 35.016 28.792 8.774 3.075 18.432 4.619 30.382 4.862 7.035 0 13.583-.849 19.916-1.672l1.2-.155c13.826-1.787 25.568-6.778 35.902-15.242a67.3 67.3 0 0 0 21.245-29.925c4.949-14.035 6.648-26.856 5.204-39.184m-16.321 44.559c-7.823 15.842-20.98 26.235-39.123 30.889-2.178.559-4.431.964-6.811 1.389-1.181.209-2.415.431-3.71.681-5.644.853-13.257.978-17.454.978-1.868 0-3.062-.027-3.096-.027-11.02-.135-20.502-2.003-28.98-5.719-11.296-4.951-20.327-13.307-27.597-25.541-4.39-7.378-7.176-16.112-8.761-27.483a83.86 83.86 0 0 1 5.16-42.771c5.699-14.454 15.949-25.42 30.463-32.589 3.352-1.659 16.976-5.652 20.557-6.38a100 100 0 0 1 15.293-1.837c20.32-.486 28.345 2.784 40.757 12.26 12.996 9.921 22.156 22.391 27.227 37.06 6.887 19.98 5.571 39.862-3.925 59.09"/></g><defs><clipPath id="a"><path fill="#fff" d="M.78.135h162.115v159.49H.78z"/></clipPath></defs></svg>
